X: 12869
T: Fermoy Lasses, The
R: reel
M: 4/4
K: Eminor
A|(GE)E2 (BE)E2|GEGA B2(BA)|(GE)E2 (BE)E2|(FD)(AG)A2AF|
(GE)E2 (BE)E2|(GE)(GA) (BcBA)|GABc d2dB|AFDF A2z||A|
G2BG d2BA|G2Bd efg2|G2BG d2cB|AFDF AcBA|
G2BG d2BA|G2Bd efg2|gage dedB|AFDF A2z||

